svgs/sharp-solid/circle-euro.svg

<svg xmlns="http://www.w3.org/2000/svg" viewBox="0 0 512 512"><!--! Font Awesome Pro 6.6.0 by @fontawesome - https://fontawesome.com License - https://fontawesome.com/license (Commercial License) Copyright 2024 Fonticons, Inc. --><path d="M256 512A256 256 0 1 0 256 0a256 256 0 1 0 0 512zM144 272c-.6-5-.9-10.1-.9-15.2c0-5.7 .4-11.3 1.1-16.8L112 240l0-32 40.7 0c19.2-46.9 65.4-80 119.2-80l41.1 0 24 0 0 48-24 0-41.1 0c-26.3 0-49.6 12.6-64.4 32l96.5 0 0 32-111.1 0c-1.1 5.4-1.7 11-1.7 16.8c0 5.2 .5 10.3 1.4 15.2L304 272l0 32-97.6 0c14.7 20.3 38.5 33.5 65.5 33.5l41.1 0 24 0 0 48-24 0-41.1 0c-54.4 0-101-33.8-119.8-81.5L112 304l0-32 32 0z"/></svg>

<svg xmlns="http://www.w3.org/2000/svg" viewBox="0 0 512 512"><!--! Font Awesome Pro 6.4.0 by @fontawesome - https://fontawesome.com License - https://fontawesome.com/license (Commercial License) Copyright 2023 Fonticons, Inc. --><path d="M256 512A256 256 0 1 0 256 0a256 256 0 1 0 0 512zM144 272c-.6-5-.9-10.1-.9-15.2c0-5.7 .4-11.3 1.1-16.8H112V208h40.7c19.2-46.9 65.4-80 119.2-80H313h24v48H313 271.9c-26.3 0-49.6 12.6-64.4 32H304v32H192.9c-1.1 5.4-1.7 11-1.7 16.8c0 5.2 .5 10.3 1.4 15.2H304v32H206.4c14.7 20.3 38.5 33.5 65.5 33.5H313h24v48H313 271.9c-54.4 0-101-33.8-119.8-81.5H112V272h32z"/></svg>
